X: 1804
T:Echo, The
N:IrTrad, 6/99
M:4/4
S:Charlie Harris, Willie Clancy Summer School 1998
R:hornpipe
Q:170
L:1/8
K:D
(3ABc|:dAFA D2 FA|dfec dcBc|A2 ce A2 ce|faec dcBA|
dAFA D2 FA|dfec dcBA|gfgb afdf|1 eABc d2 (3ABc:|2 eABc d2 Bc|
|:dg (3gfg bg (3gfg|dgbg agfa|A2 ce A2 ce|faec dcBA|
dg ~g2 bg ~g2|dgbg agfa|gfgb afdf|1 eABc d2 Bc:|2 eABc d4||
